X:370
L:1/8
M:6/8
K:D
 g | f2 e ded | g2 f efg | f2 e ded | g2 d B<Bg | f2 e ded | g2 f efg | BGB B<BG | A<A A3 :: a | 
 cAe eda | cAe g3 | Bcd dBd | BGB d2 e | cAe eda | cAe g3 | BGB B<BG | A<A A3 :|

